X:412
T:Behind the Bush in the Garden
T:Wha'll Be King But Charley
S:O'Neill's Dance Music of Ireland
Z:Nigel Gatherer
N:Changed from 6/8 for comparison
M:12/8
L:1/8
K:ADor
A/B/ | c2 A AGE  c2 A AGE  | G2 G GAE G3 E2 B |
       c2 d e2 a g2 e d2 e | c2 A BAG A3 A2  :|
A/B/ | c2 B c2 d efe  e2 d | c2 B c2 d e3 G2 G|
      1c2 B c2 d efg  e2 d | cBA  BAG  A3 A2 :|
      2c2 d e2 a g2 e d2 e | c2 A BAG A3 A2  |]
